X:1
T:Title
%%score { 1 | ( 2 3 ) }
L:1/8
Q:1/4=100
M:6/8
K:G
V:1 treble nm="Grand Piano"
V:2 bass 
V:3 bass 
V:1
 D2 G F2 G | A2 B .G3 | d2 e d2 B | [GB]3 .[FA]3 | D2 G F2 G | A2 B .G3 | E2 [Ec] BA[B,DG] | %7
w: W.~H.~Doane * * *|||||||
 [CDA]3 .[B,DG]3 | [FA][GB][FA] [Fd]3 | [GB]cB d3 | e2 d BAG | [GB]3 .[FA]3 | D2 G F2 G | %13
w: ||||||
 A2 B .G3 | E2 [Ec] BA[B,DG] | [CDA]3 [B,DG]3 |] %16
w: |||
V:2
 [G,B,]2 [G,B,D] [A,CD]2 [G,B,D] | [F,CD]2 [D,CD][K:treble] .[G,B,D]3 | %2
 [G,B,G]2 [G,CG] [G,B,G]2 [G,DG] | [D,D]3 .[D,D]3 | [G,B,]2 [G,B,D] [A,CD]2 [G,B,D] | %5
 [F,CD]2 [D,CD] .[G,B,D]3 | z3 .[D,D]3 | D,3 .G,,3 | [D,D]2 [D,D] [D,D]3 | z A[G,DG] [G,B,G]3 | %10
 [CG]2 [B,DG] DC[K:bass][G,B,D] | [D,D]3 .[D,D]3 | [G,B,]2 [G,B,D] [A,CD]2 [G,B,D] | %13
 [F,CD]2 [D,CD] .[G,B,D]3 | z3 .[D,D]3 | D,3 G,,3 |] %16
V:3
 x6 | x3[K:treble] x3 | x6 | x6 | x6 | x6 | [C,G,C]2 [C,G,] G,CD, | x6 | x6 | .[G,D]3 z3 | %10
 z3 .[G,G]3[K:bass] | x6 | x6 | x6 | [C,G,C]2 [C,G,] G,CD, | x6 |] %16

